X: 143
T: Bixom Buxom
N: There's a partly legible first title, possibly "Box le Dice", but that can't be found online.
T: Longways for as &c.
%R: reel, strathspey
B: Daniel Wright "Wright's Compleat Collection of Celebrated Country Dances" 1740 p.72
S: http://library.efdss.org/cgi-bin/dancebooks.cgi
Z: 2014 John Chambers <jc:trillian.mit.edu>
M: C|
L: 1/16
K: G
% - - - - - - - - - - - - - - - - - - - - - - - - -
|:\
B4 ABcA B2G2 G2g2 | d2d2 d2e2 c6 d2 |\
B2G2A2F2 g2f2e2d2 | ^cde2 A2^c2 d8 :|\
A4 GABG A2A4A2 | B2(cd) c2B2 B4 A4 |
G2G2 G2g2 G2G2 G4 | A2A2 A2a2 A2A2 A4 |\
c2c2 (c2BA) B2e2d2c2 | B4 A4 G8 |\
^c2c2c2c2 d2D2 D2D2 | c2c2 c2BA B2g4g2 |
a2c2 c2BA B2e2d2c2 | B4 A4 G8 |\
B4 ABcA B2G2F2G2 | B4 ABcA B2G2F2G2 |\
D2c2 c2BA B2e2d2c2 | B4 A4 G8 |]
% - - - - - - - - - - - - - - - - - - - - - - - - -
%%center The first twice & the last but once
%%begintext align
%% The 1st Cu. sett and cast off, clap hands and
%% turn sides; the 2d Cu. do the same :| then 1st
%% Cu. turn the 2d Cu. across and turn partners :|
%% the 1st Man change places with the 2d Wo. and
%% the 1st Wo. with the 2d Man, then all 4 sett and
%% turn single; then right and left half round, then
%% sett and cast off .|
%%endtext
% - - - - - - - - - - - - - - - - - - - - - - - - -
%%sep 2 4 300
